src/assets/metronic/worbby/global/img/icon-video.svg

<svg xmlns="http://www.w3.org/2000/svg" width="80" height="80"><g fill="none" fill-rule="evenodd"><circle cx="53.5" cy="53.5" r="26.5" fill="#FFF"/><path fill="#FFB247" d="M40 0C17.952 0 0 17.936 0 40s17.952 40 40 40 40-17.952 40-40S62.064 0 40 0zm0 74.352C21.056 74.352 5.648 58.944 5.648 40 5.648 21.056 21.056 5.648 40 5.648c18.944 0 34.336 15.408 34.336 34.352C74.352 58.944 58.944 74.352 40 74.352zm24.16-36.848L28.016 18.512c-.88-.464-1.936-.432-2.784.08-.848.512-1.36 1.424-1.36 2.416v37.968c0 .992.512 1.904 1.36 2.416.448.272.96.416 1.456.416.448 0 .896-.112 1.312-.32l36.16-18.992C65.088 42 65.68 41.04 65.68 40c0-1.056-.592-2.016-1.52-2.496zm-34.624 16.8V25.696L56.768 40 29.536 54.304z"/></g></svg>

<?xml version="1.0" encoding="UTF-8"?>
<svg width="80px" height="80px" viewBox="0 0 80 80" version="1.1" xmlns="http://www.w3.org/2000/svg" xmlns:xlink="http://www.w3.org/1999/xlink">
    <defs></defs>
    <g id="Desktop" stroke="none" stroke-width="1" fill="none" fill-rule="evenodd">
        <g id="Desktop-Home" transform="translate(-660.000000, -1421.000000)">
            <g id="icon-video" transform="translate(660.000000, 1421.000000)">
                <circle id="Oval" fill="#FFFFFF" cx="53.5" cy="53.5" r="26.5"></circle>
                <path d="M40,0 C17.952,0 0,17.936 0,40 C0,62.064 17.952,80 40,80 C62.048,80 80,62.048 80,40 C80,17.952 62.064,0 40,0 Z M40,74.352 C21.056,74.352 5.648,58.944 5.648,40 C5.648,21.056 21.056,5.648 40,5.648 C58.944,5.648 74.336,21.056 74.336,40 C74.352,58.944 58.944,74.352 40,74.352 Z M64.16,37.504 L28.016,18.512 C27.136,18.048 26.08,18.08 25.232,18.592 C24.384,19.104 23.872,20.016 23.872,21.008 L23.872,58.976 C23.872,59.968 24.384,60.88 25.232,61.392 C25.68,61.664 26.192,61.808 26.688,61.808 C27.136,61.808 27.584,61.696 28,61.488 L64.16,42.496 C65.088,42 65.68,41.04 65.68,40 C65.68,38.944 65.088,37.984 64.16,37.504 Z M29.536,54.304 L29.536,25.696 L56.768,40 L29.536,54.304 Z" id="Combined-Shape" fill="#FFB247"></path>
            </g>
        </g>
    </g>
</svg>
